X:146
T:Eileen's Waltz
C:Mark Schatz
N:Transcribed by Tristan Scroggins Based on Aubrey Haynie's playing from Bluegrass '97
R:bluegrass
L:1/8
Q:1/4=120
M:3/4
K:C
z4 de | ^f2 d2 d2 | A4 de | ^f2 d2 [^cE](3z/d/c/ | B4 zA | A/B3/2 {B}A2 AB/A/ | 
^F4 d^c | B2 A2 E/4^F3/4G/F/ | E4 de | ^f2 d2 d2 | A4 de | ^f2 g2 a2 | a/b3/2 z3a | 
ea4^f | dA2^F ^G/A/B | A3^F (3E/F/E/D | B,/D3/2 z2 zA | B2 e3d | d^c B2 A2 | (3B/^c/d/z ze ^fg | 
g/a3/2 z2 ^fa | a/b3/2 ^f3b | (3aba e^f (3ze^d | d2 ^c2 z/B/A | B4 zA | EA z3E | 
^FA zF GA | B2 ^c2 de | e3z/4^f/4e/ de | ^f2 d2 d2 | ^FA3 dB | A3^F (3E/F/E/D | 
B,/D4z3/2 | 


